icons/lines/flash-circle-one.svg

<svg xmlns="http://www.w3.org/2000/svg" width="24" height="24" viewBox="0 0 24 24" fill="none" stroke="currentColor" stroke-width="2" stroke-linecap="round" stroke-linejoin="round" >
  <path d="M12 22C17.5228 22 22 17.5228 22 12C22 6.47715 17.5228 2 12 2C6.47715 2 2 6.47715 2 12C2 17.5228 6.47715 22 12 22Z"/>
  <path d="M8.67987 11.91L10.3299 12.32L9.37988 16.1601C9.15988 17.0601 9.59986 17.36 10.3599 16.83L15.5399 13.24C16.1699 12.8 16.0799 12.29 15.3299 12.1L13.6799 11.69L14.6299 7.85C14.8499 6.95 14.4099 6.65001 13.6499 7.18001L8.46988 10.77C7.83988 11.21 7.92987 11.72 8.67987 11.91Z" stroke-miterlimit="10"/>
  </svg>

<svg xmlns="http://www.w3.org/2000/svg" width="24" height="24" viewBox="0 0 24 24" fill="none" stroke="currentColor" stroke-width="2" stroke-linecap="round" stroke-linejoin="round">
  <path d="m10.33 12.32-.95 3.84c-.22.9.22 1.2.98.67l5.18-3.59c.63-.44.54-.95-.21-1.14l-1.65-.41.95-3.84c.22-.9-.22-1.2-.98-.67l-5.18 3.59c-.63.44-.54.95.21 1.14z" />
  <circle cx="12" cy="12" r="10" />
</svg>
